X: 96
T: Antalya'nın Mor Üzümü
C: Nimet Balkan
O: Turkey
F: http://compmusic.upf.edu/node/140
N: gerdaniye--turku--aksak--antalyanin_mor--antalya
N: makam= gerdaniye
N: form= turku
N: usul= aksak = 9/8
M: 9/8
L: 1/16
K: C _2/4B ^3/4f  
Q: 1/4=186
%%MIDI tuningsystem comma53
g2g2 gfg3gg2 fgfg2f | gg3gf g2fg fgfg ee2d  | 
w:  An tal ya *  nın  mor_ ü *  zü *  mü    |  Se ver ler  *  bo *  yu  u *  *  zu *  nu   | 
gfge e4-ee9 | de3e2 e3e2e2e2e2d  | edd2 dcde cd2d ccBc dB | 
w:  a  ley *  *  lim    |  İ ma mın  kü çük  kı zı nı    |  Sar *  sam  ne  *  za *  *  man  ne  *  za *  man   | 
BA3A4-Ae2edd cdec  | d2dB cBcd BBA4-AA3 | 
w:  ne  za man   Sev sem  *  ne  *  za  |  man  ne  *  za *  man  *  *  ne  za man    | 
Bc d2ec .d2ze cdBc Bcd2  | {c}B3c BAA3A9 | 
w:  Sa ran  *  kol *  lar  yo *  *  *  ru  |  *  lur  mu  bir  *  za man    | 
Bc d2ec .d2ze cdBc Bcd2  | {c}B3c BAA3A9 | 
w:  Sa ran  *  kol *  lar  yo *  *  *  ru  |  *  lur  mu  bir  *  za man    | 
|


